X:1
T:Trombone Quartet
%%score 1 2 3 4
L:1/8
Q:1/4=76
M:2/4
K:Ab
V:1 bass nm="Trombone" snm="Trb."
V:2 bass nm="Trombone" snm="Trb."
V:3 bass nm="Trombone" snm="Trb."
V:4 bass nm="Bass Trombone" snm="B. Trb."
V:1
!mf!"^With Maximum Intensity"!<(! ^F,4-!<)! | !breath!F,4 |!ff! !>!=A,/ !>!A,7/2- | %3
"^\"On The Shoulders of Giants\"\nor \"Bruckners 8th\"" !breath!A,2 B,>!>!C | %4
 !breath!D7/2!<(! !>!C/!<)! | !>!D>!>!C !>!D>!>!B, |!fff! !>!_G4- | %7
 !breath!G>!<(!!>!_G !>!F>!>!G!<)! | A4- | A4- |!fff! A!f! z z2 |"^(Exclude m.12)" z4 | z4 | %13
!f!!p!!<(! A,4-!<)! | !breath!A,4 |!fff! !>!=B,/ !>!B,7/2- | !breath!B,2 C>!>!=D | %17
 !breath!E7/2!<(! !>!=D/!<)! | !>!E>!>!=D !>!E>!>!C |!f!!fff! !>!A4- | %20
 !breath!A>!>!A!<(! !>!G>!>!A!<)! | B4- | B4- | B z"^ALL OF\nTHE F'S" z2 || %24
"^(Hunch over as if you finished running a marathon\nwith the bass trombone players ego on your back)""^(Stop being a wimp and\nstand back up)" !fermata!z4 || %25
[M:4/4]"^(Put on sunglasses you hid in your pocket)"[Q:1/4=128]"^Epic"[Q:1/4=128] z8 | %26
"^\"The Final Countdown\"" z8 | z8 | z8 |!f! z2 z .C/.B,/ (C2 !tenuto!F,2) | %30
 z2 z .D/.C/ .D.C !tenuto!B,2 | z2 z .D/.C/ (D2 !tenuto!F,2) | z2 z .B,/.A,/ .B,.A,!tenuto!G,.B, | %33
 !tenuto!A,2 z .C/.B,/ (C2 !tenuto!F,2) | z2 z .D/.C/ .D.C !tenuto!B,2 | %35
 z2 z .D/.C/ (D2 !tenuto!F,2) | z2 z .B,/.A,/ .B,.A,!tenuto!G,.B, | %37
 !tenuto!A,2 z .C/.B,/ (C2 !tenuto!F,2) | z2 z .D/.C/ .D.C !tenuto!B,2 | %39
 z2 z .D/.C/ (D2 !tenuto!F,2) | z2 z .B,/.A,/ .B,.A,!tenuto!G,.B, | %41
 !tenuto!A,2 z .C/.B,/ (C2 !tenuto!F,2) | z2 z .D/.C/ .D.C !tenuto!B,2 | %43
 z2 z .D/.C/ (D2 !tenuto!F,2) | z2 z .B,/.A,/ .B,.A,!tenuto!G,.B, | !tenuto!A,3 G,/A,/ B,3 A,/B,/ | %46
 CB,A,G, F,2 D2 | C4 (3:2:4C2!<(! D2 CB,!<)! | C8 |!ff! z2 z .C/.B,/ (C2 !tenuto!F,2) | %50
 z2 z .D/.C/ .D.C !tenuto!B,2 | z2 z .D/.C/ (D2 !tenuto!F,2) | z2 z .B,/.A,/ .B,.A,!tenuto!G,.B, | %53
 !tenuto!A,2 z .C/.B,/ (C2 !tenuto!F,2) | z2 z .D/.C/ .D.C !tenuto!B,2 | %55
 z2 z .D/.C/ (D2 !tenuto!F,2) | z2 z .B,/.A,/ .B,.A,!tenuto!G,.B, | !tenuto!A,3 G,/A,/ B,3 A,/B,/ | %58
 CB,A,G, F,2 D2 | C6 C/D/C/B,/ |!<(! C8!<)! || %61
[K:Bb][Q:1/4=98]"^Dark""^(Wink at an audience member and\n  blow them a kiss while grinning)"[Q:1/4=98]"^\"The Imperial March\"" z8 | %62
 z8 | z8 | z6 (3!>!B,/!>!B,/!>!B,/B, |"^(Play louder than Bass)"!ff! G,2 G,2 G,2 !>!E,>!^!B, | %66
 G,2 !>!E,>!^!B,!<(! G,4!<)! | D2 D2 D2 !>!E>B, | _G,2 !>!E,>B,!<(! =G,4!<)! | %69
 !>!G2 !>!G,>!>!G, !>!G2 !>!_G>F | =E/^D/E z G, _D2 C>=B, | _B,/A,/_B, z E, _G,2 E,>=G, | %72
 B,2 G,>B, D4 | !>!G2 !>!G,>G, !>!G2 !>!_G>F | =E/^D/E z G, _D2 C>=B, | %75
 _B,/A,/_B, z E, _G,2 E,>B, | =G,2 E,>B, G,4 | z D/D/ D2 z D z E | z D z E z D/D/ DD | %79
 z D/D/ D2"^(Slowly turn to player 2)""^(Slowly lower trombone, pull off sunglasses\nand look at player 2 with dumbfounded awe.\nWave for everybody to stop playing)" z4 | %80
 z8 | z8 || %82
"^(Pretend to yell at player 2, no words)""^(Stop the Bass player from contacting his own species\nand continue on with the music)" !fermata!z8 || %83
[Q:1/4=180]"^Heavy"!f! !>!C!>!C[Q:1/4=180] C2"^Pokemon Intro" !>!C!>!C _D2 | %84
 !>!C!>!C C2 !>!C!>!C =B,2 | !>!C!>!C C2 !>!C!>!C F2 | G4 C4 | E4 B,4 | !>!C!>!C C2 !>!C!>!C _D2 | %89
!<(! !>!C!>!C D2 !>!C!>!C E2!<)! |!ff! C8 || =E2 z2 z2[Q:1/4=130]"^Bright"!f! G,,/=B,,/D,/^F,/ | %92
[Q:1/4=130]"^Some other Pokemon thing" G,2 G,2- G,!>!G,/!>!G,/ G,2 | %93
 G,2 G,2 (3!>!F,!>!F,!>!F, (3!>!F,!>!F,!>!^F, | G,3 =B, D4 | z3 C F3 =E/_E/ | D8 | %97
 z4 (3C2 =B,2 C2 | G,3 =B, D4 | z4 (3C2 =B,2 C2 | D4 (3F2 =E2 C2 | D4 (3C2 =B,2 C2 | G,3 =B, D4 | %103
 z3 C F3 =E/_E/ | D4- D4 | z4 (3C2 =B,2 C2 | G,3 =B, D4 | z4!<(! (3F2 =E2 F2!<)! | G3 B G4- | %109
!ff! G4 E4 | F3 D D4- | D4!<(! G2 F2!<)! | G3 =E E4- |!<(! E4!<(! C2 _D2!<)!!<)! | %114
!fff! D/D/D D/D/D D/D/D DD/D/ | D/D/D D/D/D (3C2 C2 _D2 | D/D/D D/D/D D/D/D DD/D/ | %117
 D/D/D D/D/D (3=E2 E2 D2 ||[K:C][Q:1/4=178]"^Bright"!f! ^F,F, z F, z F,F, z | B,2 z2 G,2 z2 |: %120
!mp! G,2 z E,- E, z C,2 | z F,2 G,- G,_G, F,2 |!<(! (3E,2 C2 E2 F2 DE!<)! | z!f! C2 A, B,G, z2 :| %124
!ff! z2 E^D =DB, z C | z E,F,G, z C,E,F, | z2 E^D =DB, z C | z G z G G z z2 | z2 E^D =DB, z C | %129
 z E,F,G, z C,E,F, | z z C z z _B, z z | G, z z2 z4 |!mf! _A,A, z A, z A,_B, z | CG, z G, E, z3 | %134
 _A,A, z A, z A,_B,C | z8 | _A,A, z A, z A,_B, z | CG, z G, E, z3 |!f! ^F,F, z F, z F,F, z | %139
 B,2 z2 G,2 z2 |:!mp! G,2 z E,- E, z C,2 | z F,2 G,- G,_G, F,2 |!<(! (3E,2 C2 E2 F2 DE!<)! | %143
!ff!!f! z C2 A, B,G, z2 :| C G,2 E, z2 E,2 | F, C2 C F,2 z2 | (3G,2 F2 F2 (3F2 E2 D2 | %147
 C A,2 F, E,2 z2 | C G,2 E, z2 E,2 | F, C2 C F,2 z2 | G, D2 D (3D2 C2 B,2 | E4 z4 | %152
 E z z C z z G, z | F8 | ED E6 |] %155
V:2
!mf!!<(! ^F,4-!<)! | !breath!F,4 |!ff! !>!^F,/ !>!F,7/2- | !breath!F,2 =F,>!>!F, | %4
 !breath!F,7/2!<(! !>!F,/!<)! | !>!F,>!>!F, !>!F,>!>!F, |!fff! !>!B,4- | %7
 !breath!B,>!<(!!>!B, !>!B,>!>!B,!<)! | F4- | F4- |!fff! F z!f! z2 | z4 | %12
!mp!"^Percussive" (3!^!A,!^!A,!<(!!^!A, (3!^!A,!^!A,!^!A,!<)! |!f!!p!!<(! A,4-!<)! | !breath!A,4 | %15
!fff! !>!A,/ !>!A,7/2- | !breath!A,2 G,>!>!G, | !breath!G,7/2!<(! !>!G,/!<)! | %18
 !>!G,>!>!G, !>!G,>!>!G, |!f!!fff! !>!C4- | !breath!C>!<(!!>!C !>!C>!>!C!<)! | G4- | G4- | %23
 G z"^ALL OF\nTHE F'S" z2 || %24
"^(Look at Trb. 1 with great concern)""^(Look towards Trb. 3)" !fermata!z4 || %25
[M:4/4]"^(Shake your head in dissapointment\ntowards the Lead Player)" z8 | z8 | z8 | z8 |!f! F8- | %30
 F8- | F8 | E8 | F8- | F8- | F8 | E,6 !-(!C2 |"^(Trb. 2-check your watch out of boredom)" !-)!F8- | %38
 F8- | F8 | E8 | F8- | F8- | F8 | E8 | C4 FEDC | C4 A,4 | z4!<(! !>!F4!<)! | !>!=E8 | %49
!ff! F !>!F2 F"^(Turn away from Trb. 2 in disgust)" F2 F2 | F !>!F2 F F2 F2 | F !>!F2 F F2 F2 | %52
 E !>!E2 E !>!E/!>!E/!>!E !>!E/!>!E/!>!E | F !>!F2 F F2 F2 | F !>!F2 F F2 F2 | F !>!F2 F F2 F2 | %56
 E2 E2 E4 | C !>!C2 C G,4 | C C2 C A,2 F2- | F8 |!<(! =E8!<)! || %61
[K:Bb]!mf! G, z G,(3G,/G,/G,/ G,(3G,/G,/G,/ (3!>!E,/!>!E,/!>!E,/E, | %62
 G, z G,(3G,/G,/G,/ G,(3G,/G,/G,/ (3!>!E,/!>!E,/!>!E,/E, | %63
 G, z G,(3G,/G,/G,/ G,(3G,/G,/G,/ (3!>!E,/!>!E,/!>!E,/E, | %64
 G, z G,(3G,/G,/G,/ G,(3G,/G,/G,/ (3!>!E,/!>!E,/!>!E,/E, | %65
!f! G, z G,(3G,/G,/G,/ G,(3G,/G,/G,/"^sim." (3_G,/G,/G,/G, | %66
 G, z G,(3G,/G,/G,/ G,(3G,/G,/G,/ (3E,/E,/E,/E, | G, z G,(3G,/G,/G,/ G,(3G,/G,/G,/ (3_G,/G,/G,/G, | %68
 _G, z G,(3G,/G,/G,/ =G,(3G,/G,/G,/ (3E,/E,/E,/E, | %69
 G, z G,(3G,/G,/G,/ G,(3G,/G,/G,/ (3_G,/G,/G,/G, | %70
 ^C, z C,(3C,/C,/C,/ C,(3C,/C,/C,/ (3C,/C,/C,/C, | E, z E,(3E,/E,/E,/ E,(3E,/E,/E,/ (3E,/E,/E,/E, | %72
 G, z E,(3E,/E,/E,/ G,(3G,/G,/G,/ (3G,/G,/G,/G, | %73
"^(Hurry and pop the collar on your dress shirt, and unbotton 4\n buttons. You are now more badass than a sith lord. act the part)" z8 | %74
 z8 | z8 | %76
"^(Adopt a broad stance and elevate your horn\n drastically high, and lean back in your awesomeness)" z8 | %77
!fff! !>!G2 !>!G2 !>!G2 !>!E>!^!B | !>!G2 !>!E>!^!B G4 | !>!d2 !>!d2 !>!d2 !>!e>B | %80
 !>!_G2 E>B !>!=G4 |"^(Put on your best Maynard Feguson face)" (!>!g6 z2) || %82
"^(Hang your head in shame for\nthe bad thing you just did.)""^(Button your shirt back up... why would you even do that?)" !fermata!z8 || %83
!f! z2 G2 z2 _A2 | z2 G2 z2 =E2 | z2 G2 z2 =B2 | c4 z4 | B4 z4 | z2 G2 z2 ^G2 | %89
!<(! z2 B2 z2 =B2!<)! |!ff! c8 || c2 z2 z4 |!f! =B,2 B,2 z2 B,2 | =B,2 B,2 A,2 A,2 | %94
!mp! D D3 D D3 | C C3 C C3 | D D2 D!f! F,3 =E,/_E,/ | D,4 (3F,2 F,2 ^F,2 | D,3 =B,, D,4 | %99
 C,4 (3=E,2 D,2 E,2 | =B,,4 (3F,2 F,2 ^F,2 | G,4 (3C,2 =B,,2 C,2 | D,3 =B,, D,4 |!mp! C C3 C C3 | %104
 D D3!f! F,3 =E,/_E,/ | D,4 (3F,2 F,2 ^F,2 | D,3 =B,, D,4 | z4!<(! (3C2 =B,2 C2!<)! | D3 F D4- | %109
!ff! D4"^(Melody)" A4 | B3 F F4- | F4!<(! B2 =B2!<)! | c3 G G4- | G4!<(! c2 ^c2!<)! | %114
!fff! d2 z2 z4 | z4 (3c2 c2 _d2 | d2 z2 z4 | z4 (3c2 c2 =B2 ||[K:C] EE z E z CE z | %119
 (G4!ff! g2) z2 |:!mp! C2 z G,- G, z E,2 | z A,2 B,- B,_B, A,2 |!<(! (3G,2 C2 G2 A2 FG!<)! | %123
!f! z E2 C DB, z2 :|!ff! z2 G^F =FD z E | z G,A,C z A,CD | z2 G^F =FD z E | z c z c c z z2 | %128
 z2 G^F =FD z E | z G,A,C z A,CD | z z _E z z D z z | C z z2 z4 |!mf! CC z C z CD z | %133
 EC z A, G, z3 | CC z C z CDE | z8 | CC z C z CD z | EC z A, G, z3 |!f! EE z E z CE z | %139
 G2 z2!ff! !>!g2 z2 |:!mp! C2 z G,- G, z E,2 | z A,2 B,- B,_B, A,2 |!<(! (3G,2 C2 G2 A2 FG!<)! | %143
!ff!!f! z E2 C DB, z2 :| E C2 G, z2 ^G,2 | A, F2 F A,2 z2 | (3B,2 A2 A2 (3A2 G2 F2 | %147
 E C2 A, G,2 z2 | E C2 G, z2 ^G,2 | A, F2 F A,2 z2 | B, F2 F (3F2 E2 D2 | C4 z4 | c z z G z z E z | %153
 (3A2 B2 A2 (3^G2 ^A2 G2 | =G8 |] %155
V:3
!mf!!<(! ^F,4-!<)! | !breath!F,4 |!ff! !>!=D,/ !>!D,7/2- | !breath!D,2 _D,>!>!C, | %4
 !breath!B,,7/2!<(! !>!B,,/!<)! | !>!B,,>!>!B,, !>!B,,>!>!B,, |!fff! !>!D,4- | %7
 !breath!D,>!<(!!>!E, !>!E,>!>!E,!<)! | D,4- | D,4- |!fff! D, z!f! z2 | z4 | %12
!mp! (3!^!A,!^!A,!<(!!^!A, (3!^!A,!^!A,!^!A,!<)! |!f!!p!!<(! A,4-!<)! | !breath!A,4 | %15
!fff! !>!=E,/ !>!E,7/2- | !breath!E,2 _E,>!>!=D, | !breath!C,7/2!<(! !>!C,/!<)! | %18
 !>!C,>!>!C, !>!C,>!>!C, |!f!!fff! !>!E,4- | !breath!E,>!<(!!>!F, !>!F,>!>!F,!<)! | E,4- | E,4- | %23
 E, z"^ALL OF\nTHE F'S" z2 ||"^(Look at Trb. 1 with joy)""^(Look towards Trb.2)" !fermata!z4 || %25
[M:4/4]"^(Nod head towards B. Trb.\n with great approval)" z8 | z8 |!f! !-(!B,,3 !-)!F,- F,2 z2 | %28
 !-(!B,,3 !-)!F,- F,2 z2 |!f! C8 | D8- | D8 | B,8 | C8 | D8- | D8 | B,8 | C8 | D8- | D8 | B,8 | %41
 C8 | D8 | B,4- (3B,2 !>!C2 !>!D2 | C4 B,4 | F,4 E,4- | E,4 F,4 |!<(! G,8-!<)! | G,8 | %49
!ff! C2"^(Point towards Trb. 2 and start dancing\nwith your supper cool part!)" C2 C !>!C2 C | %50
 D2 D2 D !>!D2 D | D2 D2 D !>!D2 D | B,2 B,2 B,!>!B,/!>!B,/ !>!B,!>!B,/!>!B,/ | C2 C2 C !>!C2 C | %54
 D2 D2 D !>!D2 D | B,2 B,2 (3B,2 C2 D2 | C !>!C2 C B, !>!B,2 B, | F, !>!F,2 F, E,4 | %58
 E, E,2 E, F,2 A,2 | G,8 |!<(! !>!C/!>!D/!>!C/!>!B,/ !>!G,6!<)! || %61
[K:Bb]"^(Put the largest pair of sound dampeing\nheadphones you can find)" z8 | z8 | %63
 z6 (3!>!_G,/!>!G,/!>!G,/G,!mf! | z6 (3!>!^F/!>!F/!>!F/F |!f! z6 (3!>!E,/!>!E,/!>!E,/!>!E, | %66
 z6 (3!>!^F/!>!F/!>!F/F | z6 (3!>!E,/!>!E,/!>!E,/!>!E, | z6!<(! (3!>!^F/!>!F/!>!F/!>!F!<)! | %69
 z6 (3!>!E,/!>!E,/!>!E,/!>!E, | z6 (3!>!E,/!>!E,/!>!E,/!>!E, | z6 (3!>!B,/!>!B,/!>!B,/!>!B, | %72
 z6 (3!>!^F/!>!F/!>!F/F |"^(glance over to Trb.2 in confusion)" z6 (3!>!E,/!>!E,/!>!E,/!>!E, | %74
 z4 _A,2 A,>A, |"^(Shrug your shoulders and continue on)" B,2 z4 (3!>!E,/!>!E,/!>!E,/!>!E, | %76
 G, z G,(3G,/G,/G,/ G,(3G,/G,/G,/ (3_G,/G,/G,/G, | z B,/B,/ B,2 z B, z B, | %78
 z B, z B, z B,/B,/ B,B, | z B,/B,/ B,2 z B, z B, | z B, z _G, z B,/B,/ z2 | %81
"^(Hi-five player 2)" z8 || %82
"^(Aid Trb.4 in contacting his home planet. Help him\nmove his slide while glancing upward occasionally)" !fermata!z8 || %83
!f! !>!G,!>!G, G,2 !>!G,!>!G, _A,2 | !>!G,!>!G, G,2 !>!G,!>!G, _G,2 | %85
 !>!G,!>!G, G,2 !>!G,!>!G, _C2 | C4 G,4 | B,4 F,4 | !>!G,!>!G, G,2 !>!G,!>!G, _A,2 | %89
!<(! !>!G,!>!G, B,2 !>!G,!>!G, _C2!<)! |!ff! C,8 || G,2 z2"^(Quick glance at Trb.2)" z4 | %92
!f! D,2 D,2 z2 D,2 | D,2 D,2 C,2 C,2 |!mf! G,2 G,D, G,2 D,G, | F,2 F,C, F,2 C,F, | %96
 G,2 G,D, G,2 D,G, | G,2 G,D, G,2 D,G, | G,2 G,D, G,2 D,G, | F,2 F,C, F,2 C,F, | %100
 G,2 G,D, G,2 D,G, | G,2 G,D, G,2 D,G, | G,2 G,D, G,2 D,G, | F,2 F,C, F,2 C,F, | %104
 G,2 G,D, G,2 D,G, | G,2 G,D, G,2 D,G, | G,2 G,D, G,2 D,G, | F,2 F,C,!<(! F,2 C,F,!<)! | %108
 G,2 G,D, G,2 D,G, | G,2!ff! G,D, F,G,A,C | D2 D2 D2 !>!D,2 | !>!B,,4!<(! D2 D2!<)! | %112
 C2 C2 C2 !>!=E,2 | !>!C,4!<(! A,2 G,2!<)! | %114
"^(Start dancing with the cool jams)"!fff! z4 z A,D,A, | z4 z A,D,A, | z4 z A,D,A, | %117
 z4 (3C2 C2 =B,2 ||[K:C]!f! D,D, z D, z D,D, z | G,2 z2 G,,2 z2 |:!mp! E,2 z C,- C, z G,,2 | %121
 z C,2 D,- D,_D, C,2 |!<(! (3C,2 G,2 B,2 C2 A,B,!<)! |!f! z A,2 E, F,D, z2 :| %124
!ff! C,3 G,- G,2 z G, | z2 F,E, z2 E,D, | C,3 G,- G,2 z G, | z F z F F z z2 | C,3 G,- G,2 z G, | %129
 z2 F,E, z2 E,C, | z z _A, z z F, z z | E, z z2 z4 |!mf! _E,E, z E, z E,_A, z | G,E, z E, C, z3 | %134
 _E,E, z E, z E,_A,G, | z8 | _E,E, z E, z E,_A, z | G,E, z E, C, z3 |!f! D,D, z D, z D,D, z | %139
 G,2 z2 G,,2 z2 |:!mp! E,2 z C,- C, z G,,2 | z C,2 D,- D,_D, C,2 |!<(! (3C,2 G,2 B,2 C2 A,B,!<)! | %143
!ff!!f! z A,2 E, F,D, z2 :| G, E,2 ^F, G,2 C,2 | C, A,2 A, C,2 z2 | (3D,2 C2 C2 (3C2 B,2 A,2 | %147
 G, F,2 D, C,2 z2 | G, E,2 ^F, G,2 C,2 | C, A,2 A, C,2 z2 | D, G,2 G, (3G,2 A,2 G,2 | %151
 G, E,2 E, C,2 z2 | C z z G, z z E, z | C,4 _A,,4 | G,,8 |] %155
V:4
!mf! ^F,,4- |!<(! !breath!F,,4!<)! |!ff! !>!=D,,/ !>!D,,7/2- | !breath!D,,2 _D,,>!>!C,, | %4
"^(Real bass players play the bottom split)" !breath!B,,,7/2!<(! !>!B,,,/!<)! | %5
 !>!B,,,>!>!B,,, !>!B,,,>!>!B,,, |!fff! !>![_G,,,-_G,,]4 | %7
 !breath![G,,,_G,,]>!<(!!>!E,, !>!E,,>!>!E,,!<)! | D,,4- | D,,4- |!fff! D,, z!f! z2 | z4 | z4 | %13
!f!!p!!<(! A,,4-!<)! | !breath!A,,4 | %15
!fff!"^(Play the Enatural so loudly that Trb.3 craps himself)" !>!=E,,/ !>!E,,7/2- | %16
 !breath!E,,2 _E,,>!>!=D,, | !breath![C,,C,]7/2"^(Make small children cry)"!<(! !>!C,,/!<)! | %18
 !>!C,,>!>!C,, !>!C,,>!>!C,, |!f!!fff! !>![A,,,-A,,]4 | %20
 !breath![A,,,A,,]>!<(!!>!F,, !>!F,,>!>!F,,!<)! | E,,4- | E,,4- | E,, z"^ALL OF\nTHE F'S" z2 || %24
"^(Look intensely at your instrument as if you have\n never seen anything like it in your entire life)""^(Give a look of understanding, as if you\nhave come to terms with your slidewhistle\ndevice, and continue to the next measure)" !fermata!z4 || %25
[M:4/4]"^(Start without warning)"!f! !-(!B,,,3 !-)!F,,- F,,2 z2 | !-(!B,,,3 !-)!F,,- F,,2 z2 | %27
 !-(!B,,,3 !-)!F,,- F,,2 z2 | !-(!B,,,3 !-)!F,,- F,,2 z2 |!f! F,,6 E,,2 | D,,8 | B,,,8 | %32
 E,,4 =E,,4 | F,,6 E,,2 | D,,8 | B,,,8 | E,,4 =E,,4 | F,,6 E,,2 | D,,8 | B,,,8 | E,,4 =E,,4 | %41
 F,,6 E,,2 | D,,8 | B,,,8 | E,,4 =E,,4 | F,,4 G,,4 | A,,4 D,,4 |!<(! C,,8-!<)! | C,,8 | %49
!ff! F,,F,, F,,2 F,,2 F,,E,, | D,,2 D,,2 D,,D,,D,,C,, | %51
 B,,,2 B,,,2"^(Make a face of pure\nconcentration and struggle)" B,,,B,,, B,,,C,,/D,,/ | %52
 E,,2 E,,E,, E,,3 E,, | F,,F,, F,,2 F,,2 F,,E,, |"^(Cross your eyes)" D,,2 D,,2 D,,D,,D,,C,, | %55
 B,,,2 B,,,2 B,,,B,,, B,,,C,,/D,,/ | E,,2 E,,E,, E,,3 E,, | F,,F,,F,,F,, G,,G,,G,,G,, | %58
 A,,G,,F,,E,, D,,4 | C,,C,,C,,C,, C,,C,,C,,C,, |!<(! C,,C,,C,,C,, C,,4!<)! || %61
[K:Bb]"^(Throw a large handful of\nearplugs into the crowd)" z8 | z8 | z8 | z8 | %65
!ff!"^(Play louder than Lead)" G,,2 G,,2 G,,2 !>!E,,>!^!B,, | G,,2 !>!E,,>!^!B,,!<(! G,,4!<)! | %67
 D,2 D,2 D,2 !>!E,>B,, | _G,,2 !>!E,,>B,,!<(! =G,,4!<)! | !>!G,2 !>!G,,>!>!G,, !>!G,2 !>!_G,>F, | %70
 =E,/_E,/=E, z G,, _D,2 C,>=B,, | _B,,/A,,/_B,, z E,, _G,,2 E,,>=G,, | B,,2 G,,>B,, D,4 | %73
 !>!G,2 !>!G,,>G,, !>!G,2 !>!^F,>=F, | =E,/^D,/E, z G,, ^C,2 =C,>=B,, | %75
 B,,/A,,/B,, z E,, _G,,2 E,,>B,, | G,,2 E,,>B,, G,,4 | z G,/G,/ G,2 z G, z E, | %78
 z G, z E, z G,/G,/ G,G, | z G, z G, z G, z G, | %80
"^(Place the bell of your horn on top of your head, pointing towards\nthe sky, with slide directly in front of you.When your antennae is\nsetup, move your slide up and down in attempt to tune your\ncommunicator to the proper frequency as to make contact with\nyour home planet.)" z8 | %81
 z8 || %82
"^(Aggresivley lick your lips while making\na very strained face, looking at your bell)""^(Maybe next time....)" !fermata!z8 || %83
!f! C,2 !>!G,,2 C,2 !>!_A,,2 | C,2 !>!G,,2 C,2 !>!G,,2 | C,2 !>!G,,2 C,2 !>!_C,2 | %86
 z4!fff! !>!C,,4 | z4 !>!B,,,4 | z2!f! !>!G,,2 z2 !>!_A,,2 |!<(! z2 B,,2 z2 _C,2!<)! |!ff! C,,8 || %91
 C,,2 z2 z4 |!f! G,,2 G,,2 z2 G,,2 | G,,2 G,,2 F,,2 F,,2 |!mf! G,,3 !>!G,, G,,3 G,, | %95
 F,,3 F,, F,,3 F,, | G,,3 G,, G,,3 G,, | G,,3 G,, G,,3 G,, | G,,3 G,, G,,3 G,, | %99
 F,,3 F,, F,,3 F,, | G,,3 G,, G,,3 G,, | G,,3 G,, G,,3 G,, | G,,3 G,, G,,3 G,, | %103
 F,,3 F,, F,,3 F,, | G,,3 G,, G,,3 G,, | G,,3 G,, G,,3 G,, | G,,3 G,, G,,3 G,, | %107
 F,,3 F,, F,,3 F,, | G,,2 G,,2 G,,2 G,,2 |!ff! G,,2 G,,2 G,,2 G,,2 | B,,6 !>!D,,2 | %111
 !>!B,,,4 z2 z2 | C,6 !>!=E,,2 | !>!C,,4 z4 |!fff! D,D,/D,/ D,D,- D,D, D,/D,/D, | %115
 D,D,/D,/ D,D,- D,D, D,/D,/D, | D,D,/D,/ D,D,- D,D, D,/D,/D, | D,D,/D,/ D,D, (3C,2 C,2 =B,,2 || %118
[K:C] z8 | z4!ff! G,,,2 z2 |:!mp! G,,2 z E,,- E,, z C,,2 | z F,,2 G,,- G,,_G,, F,,2 | %122
!<(! (3E,,2 C,2 E,2 F,2 D,E,!<)! |!f! z C,2 A,, B,,G,, z2 :|!ff! C,,3 G,,- G,,2 C,2 | %125
 F,,3 C, C,2 F,,2 | C,,3 E,,- E,,2 G,,C, | z6 G,,2 | C,,3 G,,- G,,2 C,2 | F,,3 C, C,2 F,,2 | %130
 C,,2 _A,, z z _B,, z2 | C, z z G,, G,,2 [C,,C,]2 |!mf! _A,, z z _E, z z _A, z | %133
 G, z z C, z z G,, z | _A,, z z _E, z z _A, z | G, z z C, z z G,, z | _A,, z z _E, z z _A, z | %137
 G, z z C, z z G,, z |!f! D,,D,, z D,, z D,,D,, z | G,,2 z2!ff! !>!G,,,2 z2 |: %140
!mp! G,,2 z E,,- E,, z C,,2 | z F,,2 G,,- G,,_G,, F,,2 |!<(! (3E,,2 C,2 E,2 F,2 D,E,!<)! | %143
!ff!!f! z C,2 A,, B,,G,, z2 :| C,,2 z2 G,,2 z2 | F,,2 F,,2 C,,2 F,,2 | D,,2 z F,, G,,2 B,,2 | %147
 G,,2 G,,2 C,C, G,,2 | C,,2 z2 G,,2 z2 | F,,2 F,,2 C,,2 F,,2 | G,, G,,2 G,, (3G,,2 A,,2 B,,2 | %151
 C, G,,2 E,, C,,2 z2 | G, z z E, z z C, z | F,,4 _D,,4 | C,,8 |] %155

